X:93
T:O.P.,The. JC.093
R:jig
S:John Clare,Poet,Helpston. (1793-1864)
N:The Old Prices..
N:MS includes Dance Instructions.
O:England
A:Northamptonshire
Z:vmp.P. Headford
M:6/8
L:1/8
Q:3/8=120
K:Bb
B3F3|\
B3F3|Bdf fed|cdB ABc|!
B3F3|B3F3|Bdf ecA|B2dB3:|!
f2f fdB|g2g gab|fgf fed|cdc cde|!
f2f fed|g2g gab|agf cd^e|fg_e de” DC”c|]

